X: 21353
M: 6/8
L: 1/8
K: D
V: 1 name="6"
ded dAF | ABA ABc | ded dAF | Eee efe |\
ded dAF | ABA A2g | fef dBA | Add d2 H|]
(3(A/B/c/) |\
dfa afd | ceg gec | dfa afd | fa^g a3 |\
dfa afd | ceg g2g | fef dBA | Add "^D.C."d2 |]
dAF dAF | ABA ABc | dAF dAF | Eee e2f/e/ |\
dAF dAF | ABA A2g | fef dBA | Add "^D.C."d2 |]


